src/assets/img/tools/laravel.svg

<svg width="24" height="24" viewBox="0 0 24 24" fill="none" xmlns="http://www.w3.org/2000/svg">
    <g clip-path="url(#clip0)">
        <path d="M23.644 5.43001C23.653 5.46201 23.658 5.49501 23.658 5.52901V10.679C23.658 10.814 23.585 10.939 23.469 11.005L19.146 13.495V18.429C19.146 18.564 19.074 18.687 18.958 18.755L9.931 23.95C9.91 23.962 9.888 23.97 9.865 23.977C9.857 23.979 9.849 23.985 9.841 23.987C9.778 24.005 9.711 24.005 9.649 23.987C9.638 23.985 9.629 23.979 9.62 23.975C9.599 23.967 9.577 23.961 9.557 23.95L0.534001 18.755C0.417001 18.687 0.345001 18.564 0.345001 18.429V2.97401C0.345001 2.94101 0.350001 2.90801 0.359001 2.87601C0.362001 2.86401 0.369001 2.85501 0.373001 2.84401C0.379001 2.82401 0.387001 2.80401 0.396001 2.78601C0.400001 2.77301 0.411001 2.76401 0.419001 2.75301C0.431001 2.73701 0.440001 2.72201 0.452001 2.70801C0.464001 2.69801 0.477001 2.69001 0.489001 2.68101C0.503001 2.66901 0.516001 2.65701 0.530001 2.64701H0.531001L5.044 0.0500059C5.159 -0.0169941 5.303 -0.0169941 5.419 0.0500059L9.931 2.64701H9.933C9.948 2.65701 9.96 2.66801 9.974 2.68001C9.986 2.68901 9.999 2.69801 10.011 2.70701C10.024 2.72101 10.032 2.73601 10.044 2.75201C10.052 2.76301 10.064 2.77301 10.069 2.78501C10.08 2.80401 10.086 2.82301 10.093 2.84301C10.096 2.85401 10.104 2.86401 10.106 2.87501C10.116 2.90601 10.12 2.93901 10.12 2.97301V12.625L13.88 10.461V5.52701C13.88 5.49401 13.885 5.46101 13.894 5.42901C13.897 5.41801 13.903 5.40801 13.907 5.39701C13.914 5.37701 13.921 5.35801 13.931 5.33801C13.938 5.32601 13.949 5.31701 13.956 5.30501C13.968 5.29001 13.977 5.27501 13.989 5.26201C14.001 5.25001 14.014 5.24201 14.026 5.23401C14.04 5.22301 14.052 5.21101 14.067 5.20201H14.068L18.581 2.60401C18.697 2.53701 18.84 2.53701 18.956 2.60401L23.469 5.20201C23.485 5.21201 23.496 5.22301 23.511 5.23301C23.523 5.24301 23.536 5.25101 23.547 5.26101C23.56 5.27501 23.569 5.29001 23.581 5.30501C23.589 5.31701 23.6 5.32601 23.605 5.33801C23.616 5.35801 23.623 5.37701 23.629 5.39701C23.635 5.40801 23.641 5.41901 23.644 5.43001ZM22.904 10.462V6.17901L21.326 7.08701L19.144 8.34301V12.626L22.904 10.462ZM18.393 18.212V13.925L16.247 15.15L10.12 18.648V22.974L18.393 18.212ZM1.095 3.62401V18.212L9.368 22.974V18.648L5.046 16.203L5.044 16.2H5.042C5.028 16.19 5.017 16.179 5.002 16.169C4.991 16.159 4.978 16.151 4.967 16.142L4.966 16.14C4.953 16.128 4.945 16.115 4.935 16.101C4.925 16.089 4.914 16.078 4.907 16.064H4.905C4.897 16.05 4.892 16.033 4.885 16.017C4.879 16.001 4.871 15.99 4.867 15.974C4.863 15.956 4.861 15.937 4.859 15.917C4.857 15.903 4.853 15.89 4.853 15.876V5.78901L2.673 4.53201L1.095 3.62401ZM5.231 0.810006L1.471 2.97401L5.231 5.13801L8.989 2.97401L5.231 0.810006ZM7.187 14.315L9.369 13.059V3.62401L7.789 4.53301L5.607 5.78901V15.224L7.187 14.315ZM18.769 3.36401L15.009 5.52801L18.769 7.69101L22.528 5.52701L18.769 3.36401ZM18.393 8.34301L16.211 7.08701L14.632 6.17901V10.462L16.814 11.718L18.393 12.626V8.34301ZM9.743 17.997L15.257 14.849L18.013 13.277L14.256 11.114L9.932 13.603L5.991 15.873L9.743 17.997Z"
              fill="#FF2D20"/>
    </g>
    <defs>
        <clipPath id="clip0">
            <rect width="24" height="24" fill="white"/>
        </clipPath>
    </defs>
</svg>

<svg width="24" height="24" fill="none" xmlns="http://www.w3.org/2000/svg"><g clip-path="url(#clip0)"><path d="M23.644 5.43a.364.364 0 01.014.099v5.15c0 .135-.073.26-.189.326l-4.323 2.49v4.934a.378.378 0 01-.188.326L9.931 23.95a.316.316 0 01-.066.027c-.008.002-.016.008-.024.01a.348.348 0 01-.192 0c-.011-.002-.02-.008-.029-.012-.021-.008-.043-.014-.063-.025L.534 18.755a.376.376 0 01-.189-.326V2.974c0-.033.005-.066.014-.098.003-.012.01-.021.014-.032a.369.369 0 01.023-.058c.004-.013.015-.022.023-.033.012-.016.021-.031.033-.045.012-.01.025-.018.037-.027.014-.012.027-.024.041-.034h.001L5.044.05a.375.375 0 01.375 0l4.512 2.597h.002c.015.01.027.021.041.033l.037.027c.013.014.021.029.033.045.008.011.02.021.025.033.011.019.017.038.024.058.003.011.011.021.013.032.01.031.014.064.014.098v9.652l3.76-2.164V5.527c0-.033.005-.066.014-.098.003-.011.009-.021.013-.032a.487.487 0 01.024-.059c.007-.012.018-.021.025-.033.012-.015.021-.03.033-.043.012-.012.025-.02.037-.028.014-.011.026-.023.041-.032h.001l4.513-2.598a.375.375 0 01.375 0l4.513 2.598c.016.01.027.021.042.031.012.01.025.018.036.028.013.014.022.029.034.044.008.012.019.021.024.033.011.02.018.039.024.059a.16.16 0 01.015.033zm-.74 5.032V6.179l-1.578.908-2.182 1.256v4.283l3.76-2.164zm-4.511 7.75v-4.287l-2.146 1.225-6.127 3.498v4.326l8.273-4.762zM1.095 3.624v14.588l8.273 4.762v-4.326l-4.322-2.445-.002-.003h-.002c-.014-.01-.025-.021-.04-.031-.011-.01-.024-.018-.035-.027l-.001-.002c-.013-.012-.021-.025-.031-.039-.01-.012-.021-.023-.028-.037h-.002c-.008-.014-.013-.031-.02-.047-.006-.016-.014-.027-.018-.043a.49.49 0 01-.008-.057c-.002-.014-.006-.027-.006-.041V5.789l-2.18-1.257-1.578-.908zM5.231.81l-3.76 2.164 3.76 2.164 3.758-2.164L5.231.81zm1.956 13.505l2.182-1.256V3.624l-1.58.909-2.182 1.256v9.435l1.58-.909zM18.769 3.364l-3.76 2.164 3.76 2.163 3.759-2.164-3.759-2.163zm-.376 4.979l-2.182-1.256-1.579-.908v4.283l2.182 1.256 1.579.908V8.343zm-8.65 9.654l5.514-3.148 2.756-1.572-3.757-2.163-4.324 2.489-3.941 2.27 3.752 2.124z" fill="#FF2D20"/></g><defs><clipPath id="clip0"><path fill="#fff" d="M0 0h24v24H0z"/></clipPath></defs></svg>
